X:284
T:Summer in Ireland (reel) 
T:Dowd's #9
B:CRE2.165 (Samhradh in ÃÂÃÂÃÂ¢ÃÂÃÂ°irinn)
F:file ID: cre.2/284summer
L:1/8
M:C
R:reel
Q:180
K:D
DFF2 GFEF|D2FA dABA|F2AF GFGB|A2FD A,B,CE|
DFAF GFEF|D2FA dABA|F2AF GFGB|A2FD EDD2:|
fdd2 g2ag|fdd2 edce|fdd2 gfec|dcde fdde|
dfaf g2eg|fedf ecAF|G2BG FAdB|A2FD EDD2:|

%%%

